icons/1_Primary/Migros.svg

<svg width="1024" height="1024" fill="none" xmlns="http://www.w3.org/2000/svg"><g clip-path="url(#a)"><path d="M512 1024c282.77 0 512-229.23 512-512S794.77 0 512 0 0 229.23 0 512s229.23 512 512 512Z" fill="#F8C18C"/><path d="M298.27 567v-63.51L271 567h-15.08l-26.78-63.49V567H201V457h37.67l25.88 62.1 27.07-62.1h34.79v110h-28.14Zm49.73 0V457h24.1a4.56 4.56 0 0 1 4.21 4.4V567H348Zm106.34-63.32h35.74c2.82 0 4.43 2.3 4.43 5v56.82c-10.07 2.24-25.77 3.62-37.47 3.62-41 0-62.63-19.53-62.63-57.27 0-33.65 21.62-57 57.67-57 15.86 0 29.78 4.24 38.74 10.29L479.8 484.1c-7.74-3.47-18.19-5.9-25.56-5.9-20.72 0-30.4 13.75-30.4 33.65 0 21.27 11.21 34.39 31.9 34.39a86.94 86.94 0 0 0 12.26-.72v-19.4h-13.61l-.05-22.44ZM578.13 567l-13-30.27c-2.67-6.16-4.53-9.23-10.19-9.23h-11.48V567h-27.63V461.41a4.924 4.924 0 0 1 4.3-4.4h39c21.2 0 39.37 4.4 39.37 31.79 0 12.25-6.79 24.81-19.51 27.35 6.34 2.15 12.72 10.29 16.18 19.1l12.6 31.75h-29.64Zm-20.83-88.8h-13.84v27.58h13.84c8.27 0 14.77-4.41 14.77-14.86-.01-10.61-6.51-12.72-14.77-12.72Zm111.58 90.91c-36 0-55.06-25.44-55.06-57.27 0-31.53 19-57 55.06-57 33.72 0 52.79 25.42 52.79 57 0 31.84-19.07 57.27-52.79 57.27Zm0-90.91c-14.83 0-25.39 10.6-25.39 33.65 0 23.4 10.55 34 25.39 34 12.72 0 23.13-10.56 23.13-34-.01-23.05-10.42-33.65-23.13-33.65Zm106.94 90.91c-18.59 0-35.86-6.67-43.55-12l12.53-22.23c7 4.23 20.59 10.74 33.14 10.74 7.1 0 16.07-1.38 16.07-9.26 0-7.4-10-9.68-23.17-13.43-15.87-4.56-34.35-10.87-34.35-32.22 0-23 20.44-35.87 47-35.87 17.56 0 31.17 6.22 38.11 12.86l-15.26 17.38c-7.56-4.5-15.27-8-23.92-8-10.42 0-16.32 4-16.32 9.71 0 5.71 7.56 8.62 17.08 11.48C800 503.49 823 508.79 823 530.83c0 22.69-18.13 38.28-47.18 38.28Z" fill="#fff"/></g><defs><clipPath id="a"><path fill="#fff" d="M0 0h1024v1024H0z"/></clipPath></defs></svg>

<svg width="1024" height="1024" viewBox="0 0 1024 1024" fill="none" xmlns="http://www.w3.org/2000/svg">
<g clip-path="url(#clip0_2_2814)">
<path d="M512 1024C794.77 1024 1024 794.77 1024 512C1024 229.23 794.77 0 512 0C229.23 0 0 229.23 0 512C0 794.77 229.23 1024 512 1024Z" fill="#F8C18C"/>
<path d="M298.27 567V503.49L271 567H255.92L229.14 503.51V567H201V457H238.67L264.55 519.1L291.62 457H326.41V567H298.27ZM348 567V457H372.1C373.221 457.086 374.27 457.582 375.047 458.394C375.824 459.206 376.274 460.277 376.31 461.4V567H348ZM454.34 503.68H490.08C492.9 503.68 494.51 505.98 494.51 508.68V565.5C484.44 567.74 468.74 569.12 457.04 569.12C416.04 569.12 394.41 549.59 394.41 511.85C394.41 478.2 416.03 454.85 452.08 454.85C467.94 454.85 481.86 459.09 490.82 465.14L479.8 484.1C472.06 480.63 461.61 478.2 454.24 478.2C433.52 478.2 423.84 491.95 423.84 511.85C423.84 533.12 435.05 546.24 455.74 546.24C459.839 546.289 463.935 546.049 468 545.52V526.12H454.39L454.34 503.68ZM578.13 567L565.13 536.73C562.46 530.57 560.6 527.5 554.94 527.5H543.46V567H515.83V461.41C515.94 460.297 516.426 459.255 517.207 458.455C517.989 457.655 519.02 457.145 520.13 457.01H559.13C580.33 457.01 598.5 461.41 598.5 488.8C598.5 501.05 591.71 513.61 578.99 516.15C585.33 518.3 591.71 526.44 595.17 535.25L607.77 567H578.13ZM557.3 478.2H543.46V505.78H557.3C565.57 505.78 572.07 501.37 572.07 490.92C572.06 480.31 565.56 478.2 557.3 478.2ZM668.88 569.11C632.88 569.11 613.82 543.67 613.82 511.84C613.82 480.31 632.82 454.84 668.88 454.84C702.6 454.84 721.67 480.26 721.67 511.84C721.67 543.68 702.6 569.11 668.88 569.11ZM668.88 478.2C654.05 478.2 643.49 488.8 643.49 511.85C643.49 535.25 654.04 545.85 668.88 545.85C681.6 545.85 692.01 535.29 692.01 511.85C692 488.8 681.59 478.2 668.88 478.2ZM775.82 569.11C757.23 569.11 739.96 562.44 732.27 557.11L744.8 534.88C751.8 539.11 765.39 545.62 777.94 545.62C785.04 545.62 794.01 544.24 794.01 536.36C794.01 528.96 784.01 526.68 770.84 522.93C754.97 518.37 736.49 512.06 736.49 490.71C736.49 467.71 756.93 454.84 783.49 454.84C801.05 454.84 814.66 461.06 821.6 467.7L806.34 485.08C798.78 480.58 791.07 477.08 782.42 477.08C772 477.08 766.1 481.08 766.1 486.79C766.1 492.5 773.66 495.41 783.18 498.27C800 503.49 823 508.79 823 530.83C823 553.52 804.87 569.11 775.82 569.11Z" fill="white"/>
</g>
<defs>
<clipPath id="clip0_2_2814">
<rect width="1024" height="1024" fill="white"/>
</clipPath>
</defs>
</svg>
